svgs/solid/skull-crossbones.svg

<svg xmlns="http://www.w3.org/2000/svg" viewBox="0 0 448 512"><!-- Font Awesome Pro 6.0.0-alpha2 by @fontawesome - https://fontawesome.com License - https://fontawesome.com/license (Commercial License) --><path d="M439.159 453.031L297.136 384.026L439.159 315.022C447.035 311.021 450.285 301.396 446.285 293.52L432.033 264.893C428.032 257.018 418.531 253.767 410.529 257.768L224 348.399L37.471 257.768C29.595 253.767 19.968 257.018 15.967 264.893L1.715 293.52C-2.285 301.396 0.965 311.021 8.841 315.022L150.864 384.026L8.841 453.031C0.965 457.031 -2.285 466.657 1.715 474.533L15.967 503.16C19.968 511.035 29.595 514.285 37.471 510.285L224 419.654L410.529 510.285C418.406 514.285 428.032 511.035 432.033 503.16L446.285 474.533C450.285 466.657 447.035 457.031 439.159 453.031ZM149.988 237.25L144.488 263.125C141.862 275.75 149.988 288 160.99 288H287.01C298.137 288 306.138 275.75 303.512 263.125L298.012 237.25C339.768 214.875 368.023 174.5 368.023 128C368.023 57.25 303.512 0 224 0S79.977 57.25 79.977 128C79.977 174.5 108.232 214.875 149.988 237.25ZM280.009 112.008C297.637 112.008 312.014 126.384 312.014 144.01S297.637 176.012 280.009 176.012C262.381 176.012 248.004 161.636 248.004 144.01S262.381 112.008 280.009 112.008ZM167.991 112.008C185.619 112.008 199.996 126.384 199.996 144.01S185.619 176.012 167.991 176.012S135.986 161.636 135.986 144.01S150.363 112.008 167.991 112.008Z"/></svg>

<svg xmlns="http://www.w3.org/2000/svg" viewBox="0 0 448 512"><!-- Font Awesome Pro 5.15.1 by @fontawesome - https://fontawesome.com License - https://fontawesome.com/license (Commercial License) --><path d="M439.15 453.06L297.17 384l141.99-69.06c7.9-3.95 11.11-13.56 7.15-21.46L432 264.85c-3.95-7.9-13.56-11.11-21.47-7.16L224 348.41 37.47 257.69c-7.9-3.95-17.51-.75-21.47 7.16L1.69 293.48c-3.95 7.9-.75 17.51 7.15 21.46L150.83 384 8.85 453.06c-7.9 3.95-11.11 13.56-7.15 21.47l14.31 28.63c3.95 7.9 13.56 11.11 21.47 7.15L224 419.59l186.53 90.72c7.9 3.95 17.51.75 21.47-7.15l14.31-28.63c3.95-7.91.74-17.52-7.16-21.47zM150 237.28l-5.48 25.87c-2.67 12.62 5.42 24.85 16.45 24.85h126.08c11.03 0 19.12-12.23 16.45-24.85l-5.5-25.87c41.78-22.41 70-62.75 70-109.28C368 57.31 303.53 0 224 0S80 57.31 80 128c0 46.53 28.22 86.87 70 109.28zM280 112c17.65 0 32 14.35 32 32s-14.35 32-32 32-32-14.35-32-32 14.35-32 32-32zm-112 0c17.65 0 32 14.35 32 32s-14.35 32-32 32-32-14.35-32-32 14.35-32 32-32z"/></svg>
